X:1
T:He Promised to Keep Me
T:He Promised to Keep Me
T:Charles Hutchinson Gabriel
T:William Charles Poole, 1912
T:Public Domain Courtesy of the Cyber Hymnal™
T:Public Domain Courtesy of the Cyber Hymnal™
C:Charles Hutchinson Gabriel
Z:Public Domain
Z:Courtesy of the Cyber Hymnal™
%%score 1 ( 2 3 )
L:1/8
Q:1/4=105
M:9/8
K:Bb
V:1 treble 
V:2 bass 
V:3 bass 
V:1
 [DF][^C=E][DF] | [EG]3 [DF]2 [CE] [B,D][DF][DB] | [Fd]6 [Fd][Ec][Ge] | %3
w: 1.~Christ will not|fail me! how pre- cious the|word! I am se-|
w: 2.~Christ will not|fail me! a child of His|care; All of my|
w: 3.~Christ will not|fail me when tempt- ed by|sin; He felt its|
w: 4.~On- ward I|jour- ney, no need shall I|know But that His|
 [Fd]3 [FB]2 [Fd] [Ec][EB][EG] | [DF]3- [DF]2 [DF] [DF][DG][B,D] | %5
w: cure with my Sav- ior and|Lord; * His love fail- eth|
w: bur- dens He glad- ly will|share. * He’s ev- er be-|
w: power in the strug- gle to|win. * My weak- ness He|
w: good- ness and power will be-|stow; * The while I am|
 [A,E]3 [Ec]2 [CE] [CE][CF][A,C] | [B,D]3 [DB]2 [DB] [FB][Fc][Fd] | %7
w: ne- ver, en- dur- eth for-|ev- er, And le- gions of|
w: side me, no harm can be-|tide me, For when I most|
w: know- eth; His love ev- er|show- eth, So sweet- ly con-|
w: cling- ing, my glad heart is|sing- ing, For Christ is be-|
 [Fc]3 [FA]2 [CF] [CG][CB][C=E] | [CF]3- [CF]2 ||"^Refrain" [Fd][Fd][Ec] [Ge] | %10
w: an- gels shall o- ver me|guard. *||
w: need Him, my Sav- ior is|there. *|He prom- ised to|
w: trol- ling my spir- it with-|in. *||
w: side me wher- ev- er I|go. *||
 [Fd]3 [DB]2 [DB] [FB][FA][Fc] | [GB]3 [EG]2 [GB] [GB][FA][EG] | [DF]3 [FB]2 [Fd] [Fd][Fc][FB] | %13
w: |||
w: keep me, sup- port and de-|fend me When tri- als o’er-|take and temp- ta- tions as-|
w: |||
w: |||
 [Fc]3- [Fc]2 [Fd] [Fd][Ec][Ge] | [Fd]3 [DB]2 [DB] [FB][FA][Fc] | [GB]3 [EG]2 [GB] [GB][FA][EG] | %16
w: |||
w: sail; * He prom- ised to|guide me, and I am per-|suad- ed His prom- is- es|
w: |||
w: |||
 [DF]3 [DB]2 [Fd] [Ec][DB][EA] | [DB]3- [DB]2 z |] %18
w: ||
w: nev- er, no, nev- er can|fail. *|
w: ||
w: ||
V:2
 [B,,B,][B,,B,][B,,B,] | [B,,B,]3 [B,,B,]2 [B,,F,] [B,,F,][B,,B,][B,,F,] | %2
 [B,,B,]6 [B,,B,][B,,B,][B,,B,] | [B,,B,]3 [D,B,]2 [B,,B,] [E,G,][E,G,][E,B,] | %4
 [B,,B,]3- [B,,B,]2 [B,,B,] [B,,B,][B,,B,][B,,F,] | [C,F,]3 [F,A,]2 [F,A,] [F,A,][F,A,]F, | %6
 [B,,F,]3 [B,,F,]2 [B,,F,] [D,B,][C,A,][B,,B,] | [C,A,]3 [C,C]2 [C,A,] [C,B,][C,G,][C,B,] | %8
 [F,A,]3- [F,A,]2 || [B,,B,][B,,B,][B,,B,] [B,,B,] | [B,,B,]3 [B,,F,]2 [B,,F,] [D,B,][D,B,][D,B,] | %11
 [E,E]3 [E,B,]2 [E,B,] [E,E][E,E][E,B,] | [B,,B,]3 [D,B,]2 [B,,B,] [B,,B,][C,A,][D,B,] | %13
 [F,A,]3- [F,A,]2 [B,,B,] [B,,B,][B,,B,][B,,B,] | [B,,B,]3 [B,,F,]2 [B,,F,] [D,B,][D,B,][D,B,] | %15
 [E,E]3 [E,B,]2 [E,E] [E,E][E,E][E,B,] | [F,B,]3 [F,B,]2 [F,B,] [F,A,][F,B,]F, | %17
 [B,,F,]3- [B,,F,]2 z |] %18
V:3
 x3 | x9 | x9 | x9 | x9 | x8 F, | x9 | x9 | x5 || x4 | x9 | x9 | x9 | x9 | x9 | x9 | x8 F, | x6 |] %18

